images/16758902.svg

<?xml version="1.0" encoding="UTF-8"?>
<svg xmlns="http://www.w3.org/2000/svg" xmlns:xlink="http://www.w3.org/1999/xlink" width="300pt" height="300pt" viewBox="0 0 300 300" version="1.1">
<defs>
<g>
<symbol overflow="visible" id="glyph0-0">
<path style="stroke:none;" d="M 0.796875 2.828125 L 0.796875 -11.28125 L 8.796875 -11.28125 L 8.796875 2.828125 Z M 1.703125 1.9375 L 7.90625 1.9375 L 7.90625 -10.390625 L 1.703125 -10.390625 Z M 1.703125 1.9375 "/>
</symbol>
<symbol overflow="visible" id="glyph0-1">
<path style="stroke:none;" d="M 6.3125 -10.59375 C 5.164062 -10.59375 4.253906 -10.164062 3.578125 -9.3125 C 2.898438 -8.457031 2.5625 -7.296875 2.5625 -5.828125 C 2.5625 -4.359375 2.898438 -3.195312 3.578125 -2.34375 C 4.253906 -1.488281 5.164062 -1.0625 6.3125 -1.0625 C 7.457031 -1.0625 8.363281 -1.488281 9.03125 -2.34375 C 9.695312 -3.195312 10.03125 -4.359375 10.03125 -5.828125 C 10.03125 -7.296875 9.695312 -8.457031 9.03125 -9.3125 C 8.363281 -10.164062 7.457031 -10.59375 6.3125 -10.59375 Z M 6.3125 -11.875 C 7.945312 -11.875 9.253906 -11.328125 10.234375 -10.234375 C 11.210938 -9.140625 11.703125 -7.671875 11.703125 -5.828125 C 11.703125 -3.984375 11.210938 -2.507812 10.234375 -1.40625 C 9.253906 -0.3125 7.945312 0.234375 6.3125 0.234375 C 4.664062 0.234375 3.351562 -0.3125 2.375 -1.40625 C 1.394531 -2.507812 0.90625 -3.984375 0.90625 -5.828125 C 0.90625 -7.671875 1.394531 -9.140625 2.375 -10.234375 C 3.351562 -11.328125 4.664062 -11.875 6.3125 -11.875 Z M 6.3125 -11.875 "/>
</symbol>
<symbol overflow="visible" id="glyph0-2">
<path style="stroke:none;" d="M 1.578125 -11.671875 L 3.703125 -11.671875 L 8.875 -1.90625 L 8.875 -11.671875 L 10.40625 -11.671875 L 10.40625 0 L 8.28125 0 L 3.109375 -9.765625 L 3.109375 0 L 1.578125 0 Z M 1.578125 -11.671875 "/>
</symbol>
<symbol overflow="visible" id="glyph0-3">
<path style="stroke:none;" d="M 3.15625 -5.578125 L 3.15625 -1.296875 L 5.6875 -1.296875 C 6.53125 -1.296875 7.15625 -1.472656 7.5625 -1.828125 C 7.976562 -2.179688 8.1875 -2.71875 8.1875 -3.4375 C 8.1875 -4.164062 7.976562 -4.703125 7.5625 -5.046875 C 7.15625 -5.398438 6.53125 -5.578125 5.6875 -5.578125 Z M 3.15625 -10.375 L 3.15625 -6.859375 L 5.484375 -6.859375 C 6.253906 -6.859375 6.828125 -7 7.203125 -7.28125 C 7.585938 -7.570312 7.78125 -8.015625 7.78125 -8.609375 C 7.78125 -9.203125 7.585938 -9.644531 7.203125 -9.9375 C 6.828125 -10.226562 6.253906 -10.375 5.484375 -10.375 Z M 1.578125 -11.671875 L 5.609375 -11.671875 C 6.804688 -11.671875 7.726562 -11.421875 8.375 -10.921875 C 9.03125 -10.421875 9.359375 -9.707031 9.359375 -8.78125 C 9.359375 -8.070312 9.191406 -7.503906 8.859375 -7.078125 C 8.523438 -6.660156 8.035156 -6.398438 7.390625 -6.296875 C 8.171875 -6.128906 8.773438 -5.78125 9.203125 -5.25 C 9.628906 -4.71875 9.84375 -4.054688 9.84375 -3.265625 C 9.84375 -2.222656 9.488281 -1.414062 8.78125 -0.84375 C 8.070312 -0.28125 7.066406 0 5.765625 0 L 1.578125 0 Z M 1.578125 -11.671875 "/>
</symbol>
<symbol overflow="visible" id="glyph0-4">
<path style="stroke:none;" d="M 6.578125 -7.40625 C 6.421875 -7.5 6.242188 -7.566406 6.046875 -7.609375 C 5.859375 -7.660156 5.648438 -7.6875 5.421875 -7.6875 C 4.609375 -7.6875 3.984375 -7.421875 3.546875 -6.890625 C 3.117188 -6.359375 2.90625 -5.597656 2.90625 -4.609375 L 2.90625 0 L 1.453125 0 L 1.453125 -8.75 L 2.90625 -8.75 L 2.90625 -7.390625 C 3.207031 -7.921875 3.597656 -8.316406 4.078125 -8.578125 C 4.566406 -8.835938 5.15625 -8.96875 5.84375 -8.96875 C 5.945312 -8.96875 6.054688 -8.957031 6.171875 -8.9375 C 6.296875 -8.925781 6.429688 -8.910156 6.578125 -8.890625 Z M 6.578125 -7.40625 "/>
</symbol>
</g>
</defs>
<g id="surface49281">
<rect x="0" y="0" width="300" height="300" style="fill:rgb(100%,100%,100%);fill-opacity:1;stroke:none;"/>
<path style="fill:none;stroke-width:1.2;stroke-linecap:butt;stroke-linejoin:miter;stroke:rgb(0%,0%,0%);stroke-opacity:1;stroke-miterlimit:10;" d="M 64.710938 224.90625 L 65.621094 186.664062 "/>
<path style="fill:none;stroke-width:1.2;stroke-linecap:butt;stroke-linejoin:miter;stroke:rgb(0%,0%,0%);stroke-opacity:1;stroke-miterlimit:10;" d="M 65.621094 186.664062 L 32.957031 166.757812 "/>
<path style="fill:none;stroke-width:1.2;stroke-linecap:butt;stroke-linejoin:miter;stroke:rgb(0%,0%,0%);stroke-opacity:1;stroke-miterlimit:10;" d="M 99.191406 168.332031 L 65.621094 186.664062 "/>
<path style="fill:none;stroke-width:1.2;stroke-linecap:butt;stroke-linejoin:miter;stroke:rgb(0%,0%,0%);stroke-opacity:1;stroke-miterlimit:10;" d="M 32.957031 166.757812 L 33.867188 128.519531 "/>
<path style="fill:none;stroke-width:1.2;stroke-linecap:butt;stroke-linejoin:miter;stroke:rgb(0%,0%,0%);stroke-opacity:1;stroke-miterlimit:10;" d="M 33.867188 128.519531 L 67.4375 110.1875 "/>
<path style="fill:none;stroke-width:1.2;stroke-linecap:butt;stroke-linejoin:miter;stroke:rgb(0%,0%,0%);stroke-opacity:1;stroke-miterlimit:10;" d="M 67.4375 110.1875 L 68.34375 71.949219 "/>
<path style="fill:none;stroke-width:1.2;stroke-linecap:butt;stroke-linejoin:miter;stroke:rgb(0%,0%,100%);stroke-opacity:1;stroke-miterlimit:10;" d="M 100.097656 130.09375 L 83.769531 120.140625 "/>
<path style="fill:none;stroke-width:1.2;stroke-linecap:butt;stroke-linejoin:miter;stroke:rgb(0%,0%,0%);stroke-opacity:1;stroke-miterlimit:10;" d="M 83.769531 120.140625 L 67.4375 110.1875 "/>
<path style="fill:none;stroke-width:1.2;stroke-linecap:butt;stroke-linejoin:miter;stroke:rgb(0%,0%,0%);stroke-opacity:1;stroke-miterlimit:10;" d="M 70.6875 68.105469 L 54.355469 58.152344 "/>
<path style="fill:none;stroke-width:1.2;stroke-linecap:butt;stroke-linejoin:miter;stroke:rgb(100%,0%,0%);stroke-opacity:1;stroke-miterlimit:10;" d="M 54.355469 58.152344 L 38.027344 48.199219 "/>
<path style="fill:none;stroke-width:1.2;stroke-linecap:butt;stroke-linejoin:miter;stroke:rgb(0%,0%,0%);stroke-opacity:1;stroke-miterlimit:10;" d="M 66.003906 75.789062 L 49.671875 65.835938 "/>
<path style="fill:none;stroke-width:1.2;stroke-linecap:butt;stroke-linejoin:miter;stroke:rgb(100%,0%,0%);stroke-opacity:1;stroke-miterlimit:10;" d="M 49.671875 65.835938 L 33.339844 55.882812 "/>
<path style="fill:none;stroke-width:1.2;stroke-linecap:butt;stroke-linejoin:miter;stroke:rgb(0%,0%,0%);stroke-opacity:1;stroke-miterlimit:10;" d="M 68.34375 71.949219 L 85.128906 62.78125 "/>
<path style="fill:none;stroke-width:1.2;stroke-linecap:butt;stroke-linejoin:miter;stroke:rgb(100%,0%,0%);stroke-opacity:1;stroke-miterlimit:10;" d="M 85.128906 62.78125 L 101.914062 53.613281 "/>
<path style=" stroke:none;fill-rule:nonzero;fill:rgb(100%,100%,100%);fill-opacity:1;" d="M 22.683594 42.542969 L 35.683594 42.542969 L 35.683594 61.542969 L 22.683594 61.542969 Z M 22.683594 42.542969 "/>
<g style="fill:rgb(100%,0%,0%);fill-opacity:1;">
  <use xlink:href="#glyph0-1" x="22.683594" y="57.394531"/>
</g>
<path style="fill:none;stroke-width:1.2;stroke-linecap:butt;stroke-linejoin:miter;stroke:rgb(100%,0%,0%);stroke-opacity:1;stroke-miterlimit:10;" d="M 101.914062 53.613281 L 118.246094 63.570312 "/>
<path style="fill:none;stroke-width:1.2;stroke-linecap:butt;stroke-linejoin:miter;stroke:rgb(0%,0%,0%);stroke-opacity:1;stroke-miterlimit:10;" d="M 118.246094 63.570312 L 134.578125 73.523438 "/>
<path style=" stroke:none;fill-rule:nonzero;fill:rgb(100%,100%,100%);fill-opacity:1;" d="M 95.914062 44.113281 L 108.914062 44.113281 L 108.914062 63.113281 L 95.914062 63.113281 Z M 95.914062 44.113281 "/>
<g style="fill:rgb(100%,0%,0%);fill-opacity:1;">
  <use xlink:href="#glyph0-1" x="95.914062" y="58.964844"/>
</g>
<path style="fill:none;stroke-width:1.2;stroke-linecap:butt;stroke-linejoin:miter;stroke:rgb(0%,0%,0%);stroke-opacity:1;stroke-miterlimit:10;" d="M 134.578125 73.523438 L 133.667969 111.761719 "/>
<path style="fill:none;stroke-width:1.2;stroke-linecap:butt;stroke-linejoin:miter;stroke:rgb(0%,0%,0%);stroke-opacity:1;stroke-miterlimit:10;" d="M 134.578125 73.523438 L 168.148438 55.1875 "/>
<path style="fill:none;stroke-width:1.2;stroke-linecap:butt;stroke-linejoin:miter;stroke:rgb(0%,0%,0%);stroke-opacity:1;stroke-miterlimit:10;" d="M 133.667969 111.761719 L 116.882812 120.925781 "/>
<path style="fill:none;stroke-width:1.2;stroke-linecap:butt;stroke-linejoin:miter;stroke:rgb(0%,0%,100%);stroke-opacity:1;stroke-miterlimit:10;" d="M 116.882812 120.925781 L 100.097656 130.09375 "/>
<path style="fill:none;stroke-width:1.2;stroke-linecap:butt;stroke-linejoin:miter;stroke:rgb(0%,0%,100%);stroke-opacity:1;stroke-miterlimit:10;" d="M 100.097656 130.09375 L 99.644531 149.214844 "/>
<path style="fill:none;stroke-width:1.2;stroke-linecap:butt;stroke-linejoin:miter;stroke:rgb(0%,0%,0%);stroke-opacity:1;stroke-miterlimit:10;" d="M 99.644531 149.214844 L 99.191406 168.332031 "/>
<path style=" stroke:none;fill-rule:nonzero;fill:rgb(100%,100%,100%);fill-opacity:1;" d="M 94.097656 120.59375 L 106.097656 120.59375 L 106.097656 139.59375 L 94.097656 139.59375 Z M 94.097656 120.59375 "/>
<g style="fill:rgb(0%,0%,100%);fill-opacity:1;">
  <use xlink:href="#glyph0-2" x="94.097656" y="135.445312"/>
</g>
<path style="fill:none;stroke-width:1.2;stroke-linecap:butt;stroke-linejoin:miter;stroke:rgb(0%,0%,0%);stroke-opacity:1;stroke-miterlimit:10;" d="M 99.191406 168.332031 L 131.851562 188.238281 "/>
<path style="fill:none;stroke-width:1.2;stroke-linecap:butt;stroke-linejoin:miter;stroke:rgb(0%,0%,0%);stroke-opacity:1;stroke-miterlimit:10;" d="M 131.851562 188.238281 L 130.945312 226.476562 "/>
<path style="fill:none;stroke-width:1.2;stroke-linecap:butt;stroke-linejoin:miter;stroke:rgb(0%,0%,0%);stroke-opacity:1;stroke-miterlimit:10;" d="M 140.757812 192.277344 L 140.03125 222.867188 "/>
<path style="fill:none;stroke-width:1.2;stroke-linecap:butt;stroke-linejoin:miter;stroke:rgb(0%,0%,0%);stroke-opacity:1;stroke-miterlimit:10;" d="M 165.421875 169.90625 L 131.851562 188.238281 "/>
<path style="fill:none;stroke-width:1.2;stroke-linecap:butt;stroke-linejoin:miter;stroke:rgb(0%,0%,0%);stroke-opacity:1;stroke-miterlimit:10;" d="M 130.945312 226.476562 L 163.605469 246.386719 "/>
<path style="fill:none;stroke-width:1.2;stroke-linecap:butt;stroke-linejoin:miter;stroke:rgb(0%,0%,0%);stroke-opacity:1;stroke-miterlimit:10;" d="M 163.605469 246.386719 L 197.175781 228.050781 "/>
<path style="fill:none;stroke-width:1.2;stroke-linecap:butt;stroke-linejoin:miter;stroke:rgb(0%,0%,0%);stroke-opacity:1;stroke-miterlimit:10;" d="M 162.648438 236.652344 L 189.503906 221.988281 "/>
<path style="fill:none;stroke-width:1.2;stroke-linecap:butt;stroke-linejoin:miter;stroke:rgb(0%,0%,0%);stroke-opacity:1;stroke-miterlimit:10;" d="M 197.175781 228.050781 L 198.085938 189.8125 "/>
<path style="fill:none;stroke-width:1.2;stroke-linecap:butt;stroke-linejoin:miter;stroke:rgb(0%,0%,0%);stroke-opacity:1;stroke-miterlimit:10;" d="M 197.175781 228.050781 L 213.507812 238.003906 "/>
<path style="fill:none;stroke-width:1.2;stroke-linecap:butt;stroke-linejoin:miter;stroke:rgb(50%,30%,10%);stroke-opacity:1;stroke-miterlimit:10;" d="M 213.507812 238.003906 L 229.835938 247.957031 "/>
<path style="fill:none;stroke-width:1.2;stroke-linecap:butt;stroke-linejoin:miter;stroke:rgb(0%,0%,0%);stroke-opacity:1;stroke-miterlimit:10;" d="M 198.085938 189.8125 L 165.421875 169.90625 "/>
<path style="fill:none;stroke-width:1.2;stroke-linecap:butt;stroke-linejoin:miter;stroke:rgb(0%,0%,0%);stroke-opacity:1;stroke-miterlimit:10;" d="M 190.132812 195.507812 L 164.003906 179.582031 "/>
<path style=" stroke:none;fill-rule:nonzero;fill:rgb(100%,100%,100%);fill-opacity:1;" d="M 220.835938 238.457031 L 238.835938 238.457031 L 238.835938 257.457031 L 220.835938 257.457031 Z M 220.835938 238.457031 "/>
<g style="fill:rgb(50%,30%,10%);fill-opacity:1;">
  <use xlink:href="#glyph0-3" x="220.835938" y="253.308594"/>
  <use xlink:href="#glyph0-4" x="231.8125" y="253.308594"/>
</g>
<path style="fill:none;stroke-width:1.2;stroke-linecap:butt;stroke-linejoin:miter;stroke:rgb(0%,0%,0%);stroke-opacity:1;stroke-miterlimit:10;" d="M 168.148438 55.1875 L 200.808594 75.09375 "/>
<path style="fill:none;stroke-width:1.2;stroke-linecap:butt;stroke-linejoin:miter;stroke:rgb(0%,0%,0%);stroke-opacity:1;stroke-miterlimit:10;" d="M 200.808594 75.09375 L 199.902344 113.335938 "/>
<path style="fill:none;stroke-width:1.2;stroke-linecap:butt;stroke-linejoin:miter;stroke:rgb(0%,0%,0%);stroke-opacity:1;stroke-miterlimit:10;" d="M 209.714844 79.132812 L 208.988281 109.722656 "/>
<path style="fill:none;stroke-width:1.2;stroke-linecap:butt;stroke-linejoin:miter;stroke:rgb(0%,0%,0%);stroke-opacity:1;stroke-miterlimit:10;" d="M 234.378906 56.761719 L 200.808594 75.09375 "/>
<path style="fill:none;stroke-width:1.2;stroke-linecap:butt;stroke-linejoin:miter;stroke:rgb(0%,0%,0%);stroke-opacity:1;stroke-miterlimit:10;" d="M 199.902344 113.335938 L 232.5625 133.242188 "/>
<path style="fill:none;stroke-width:1.2;stroke-linecap:butt;stroke-linejoin:miter;stroke:rgb(0%,0%,0%);stroke-opacity:1;stroke-miterlimit:10;" d="M 232.5625 133.242188 L 266.132812 114.90625 "/>
<path style="fill:none;stroke-width:1.2;stroke-linecap:butt;stroke-linejoin:miter;stroke:rgb(0%,0%,0%);stroke-opacity:1;stroke-miterlimit:10;" d="M 231.605469 123.507812 L 258.464844 108.84375 "/>
<path style="fill:none;stroke-width:1.2;stroke-linecap:butt;stroke-linejoin:miter;stroke:rgb(0%,0%,0%);stroke-opacity:1;stroke-miterlimit:10;" d="M 266.132812 114.90625 L 267.042969 76.667969 "/>
<path style="fill:none;stroke-width:1.2;stroke-linecap:butt;stroke-linejoin:miter;stroke:rgb(0%,0%,0%);stroke-opacity:1;stroke-miterlimit:10;" d="M 267.042969 76.667969 L 234.378906 56.761719 "/>
<path style="fill:none;stroke-width:1.2;stroke-linecap:butt;stroke-linejoin:miter;stroke:rgb(0%,0%,0%);stroke-opacity:1;stroke-miterlimit:10;" d="M 259.09375 82.363281 L 232.960938 66.4375 "/>
</g>
</svg>

<svg xmlns="http://www.w3.org/2000/svg" xmlns:xlink="http://www.w3.org/1999/xlink" width="300pt" height="300pt" viewBox="0 0 300 300"><defs><symbol overflow="visible"><path d="M.797 2.828v-14.11h8V2.83zm.906-.89h6.203v-12.33H1.703zm0 0"/></symbol><symbol overflow="visible" id="a"><path d="M6.313-10.594c-1.15 0-2.06.43-2.735 1.28-.68.857-1.015 2.017-1.015 3.486 0 1.47.335 2.633 1.015 3.484.676.856 1.586 1.28 2.735 1.28 1.144.002 2.05-.424 2.718-1.28.665-.85 1-2.015 1-3.484 0-1.47-.335-2.63-1-3.484-.667-.852-1.573-1.282-2.717-1.282zm0-1.28c1.632 0 2.94.546 3.92 1.64.978 1.093 1.47 2.562 1.47 4.406 0 1.844-.492 3.32-1.47 4.422-.98 1.093-2.288 1.64-3.92 1.64-1.65 0-2.96-.546-3.938-1.64-.98-1.102-1.47-2.578-1.47-4.422 0-1.844.49-3.313 1.47-4.406.977-1.094 2.29-1.64 3.938-1.64zm0 0"/></symbol><symbol overflow="visible" id="b"><path d="M1.578-11.672h2.125l5.172 9.766v-9.766h1.53V0H8.282L3.11-9.766V0H1.577zm0 0"/></symbol><symbol overflow="visible" id="c"><path d="M3.156-5.578v4.28h2.531c.844 0 1.47-.175 1.875-.53.415-.352.625-.89.625-1.61 0-.726-.21-1.265-.624-1.61-.407-.35-1.032-.53-1.875-.53zm0-4.797v3.516h2.328c.77 0 1.344-.14 1.72-.42.382-.29.577-.736.577-1.33 0-.593-.194-1.035-.577-1.328-.375-.29-.95-.437-1.72-.437zm-1.578-1.297h4.03c1.197 0 2.12.25 2.767.75.656.5.984 1.215.984 2.14 0 .712-.17 1.278-.5 1.704-.337.418-.825.68-1.47.78.782.17 1.383.517 1.813 1.048.426.53.64 1.195.64 1.984 0 1.043-.355 1.852-1.062 2.422C8.07-.28 7.067 0 5.767 0H1.578zm0 0"/></symbol><symbol overflow="visible" id="d"><path d="M6.578-7.406c-.156-.094-.336-.16-.53-.203-.19-.05-.4-.077-.626-.077-.813 0-1.438.265-1.875.796-.43.53-.64 1.292-.64 2.28V0H1.452v-8.75h1.453v1.36c.3-.532.692-.926 1.172-1.188.488-.258 1.078-.39 1.766-.39.1 0 .21.01.328.03.125.012.258.028.406.047zm0 0"/></symbol></defs><g><path fill="#fff" d="M0 0h300v300H0z"/><path d="M64.71 224.906l.91-38.242M65.62 186.664l-32.663-19.906M99.19 168.332l-33.57 18.332M32.957 166.758l.91-38.238M33.867 128.52l33.57-18.333M67.438 110.188l.906-38.24" stroke-width="1.2" stroke="#000" stroke-miterlimit="10" fill="none"/><path d="M100.098 130.094L83.77 120.14" stroke-width="1.2" stroke="#00f" stroke-miterlimit="10" fill="none"/><path d="M83.77 120.14l-16.332-9.953M70.688 68.105l-16.333-9.953" stroke-width="1.2" stroke="#000" stroke-miterlimit="10" fill="none"/><path d="M54.355 58.152L38.027 48.2" stroke-width="1.2" stroke="#f00" stroke-miterlimit="10" fill="none"/><path d="M66.004 75.79l-16.332-9.954" stroke-width="1.2" stroke="#000" stroke-miterlimit="10" fill="none"/><path d="M49.672 65.836L33.34 55.883" stroke-width="1.2" stroke="#f00" stroke-miterlimit="10" fill="none"/><path d="M68.344 71.95l16.785-9.17" stroke-width="1.2" stroke="#000" stroke-miterlimit="10" fill="none"/><path d="M85.13 62.78l16.784-9.167" stroke-width="1.2" stroke="#f00" stroke-miterlimit="10" fill="none"/><path d="M22.684 42.543h13v19h-13zm0 0" fill="#fff"/><use xlink:href="#a" x="22.684" y="57.395" fill="#f00"/><path d="M101.914 53.613l16.332 9.957" stroke-width="1.2" stroke="#f00" stroke-miterlimit="10" fill="none"/><path d="M118.246 63.57l16.332 9.953" stroke-width="1.2" stroke="#000" stroke-miterlimit="10" fill="none"/><path d="M95.914 44.113h13v19h-13zm0 0" fill="#fff"/><use xlink:href="#a" x="95.914" y="58.965" fill="#f00"/><path d="M134.578 73.523l-.91 38.24M134.578 73.523l33.57-18.335M133.668 111.762l-16.785 9.164" stroke-width="1.2" stroke="#000" stroke-miterlimit="10" fill="none"/><path d="M116.883 120.926l-16.785 9.168M100.098 130.094l-.453 19.12" stroke-width="1.2" stroke="#00f" stroke-miterlimit="10" fill="none"/><path d="M99.645 149.215l-.454 19.117" stroke-width="1.2" stroke="#000" stroke-miterlimit="10" fill="none"/><path d="M94.098 120.594h12v19h-12zm0 0" fill="#fff"/><use xlink:href="#b" x="94.098" y="135.445" fill="#00f"/><path d="M99.19 168.332l32.662 19.906M131.852 188.238l-.907 38.24M140.758 192.277l-.727 30.59M165.422 169.906l-33.57 18.332M130.945 226.477l32.66 19.91M163.605 246.387l33.57-18.336M162.648 236.652l26.856-14.664M197.176 228.05l.91-38.238M197.176 228.05l16.332 9.954" stroke-width="1.2" stroke="#000" stroke-miterlimit="10" fill="none"/><path d="M213.508 238.004l16.328 9.953" stroke-width="1.2" stroke="#7f4d1a" stroke-miterlimit="10" fill="none"/><path d="M198.086 189.813l-32.664-19.907M190.133 195.508l-26.13-15.926" stroke-width="1.2" stroke="#000" stroke-miterlimit="10" fill="none"/><path d="M220.836 238.457h18v19h-18zm0 0" fill="#fff"/><g fill="#7f4d1a"><use xlink:href="#c" x="220.836" y="253.309"/><use xlink:href="#d" x="231.813" y="253.309"/></g><path d="M168.148 55.188l32.66 19.906M200.81 75.094l-.908 38.242M209.715 79.133l-.727 30.59M234.38 56.762l-33.57 18.332M199.902 113.336l32.66 19.906M232.563 133.242l33.57-18.336M231.605 123.508l26.86-14.664M266.133 114.906l.91-38.238M267.043 76.668L234.38 56.762M259.094 82.363L232.96 66.438" stroke-width="1.2" stroke="#000" stroke-miterlimit="10" fill="none"/></g></svg>
